svg/fluentui-system-icons/ic_fluent_arrow_reset_48_filled.svg

<svg width="48" height="48" viewBox="0 0 48 48" fill="none" xmlns="http://www.w3.org/2000/svg">
<path d="M13.8107 6.81066C14.3964 6.22487 14.3964 5.27513 13.8107 4.68934C13.2249 4.10355 12.2751 4.10355 11.6893 4.68934L4.18934 12.1893C3.60355 12.7751 3.60355 13.7249 4.18934 14.3107L11.6893 21.8107C12.2751 22.3964 13.2249 22.3964 13.8107 21.8107C14.3964 21.2249 14.3964 20.2751 13.8107 19.6893L8.87132 14.75H26.5C33.5416 14.75 39.25 20.4584 39.25 27.5C39.25 34.5416 33.5416 40.25 26.5 40.25C19.4584 40.25 13.75 34.5416 13.75 27.5C13.75 26.6716 13.0784 26 12.25 26C11.4216 26 10.75 26.6716 10.75 27.5C10.75 36.1985 17.8015 43.25 26.5 43.25C35.1985 43.25 42.25 36.1985 42.25 27.5C42.25 18.8015 35.1985 11.75 26.5 11.75H8.87132L13.8107 6.81066Z" fill="#212121"/>
</svg>

<svg xmlns="http://www.w3.org/2000/svg" width="48" height="48"><path d="M13.81 6.81a1.5 1.5 0 0 0-2.12-2.12l-7.5 7.5a1.5 1.5 0 0 0 0 2.12l7.5 7.5a1.5 1.5 0 0 0 2.12-2.12l-4.939-4.94H26.5c7.042 0 12.75 5.708 12.75 12.75S33.542 40.25 26.5 40.25 13.75 34.542 13.75 27.5a1.5 1.5 0 0 0-3 0c0 8.699 7.052 15.75 15.75 15.75 8.699 0 15.75-7.051 15.75-15.75 0-8.698-7.051-15.75-15.75-15.75H8.871l4.94-4.94Z"/></svg>
